vendor/shopware/storefront/Resources/app/storefront/dist/assets/icon/default/star.svg

<svg xmlns="http://www.w3.org/2000/svg" width="24" height="24" viewBox="0 0 24 24">
  <path fill="#758CA3" fill-rule="evenodd" d="M11.9999648,18.8397949 L18.0066111,21.4867198 L17.3453917,14.9561149 L21.7189226,10.0613996 L15.3036203,8.67218869 L11.9999648,3.0001634 L8.69630927,8.67218869 L2.28100696,10.0613996 L6.65453787,14.9561149 L5.99331852,21.4867198 L11.9999648,18.8397949 Z M6.79981683,23.3169002 C5.78903608,23.7623169 4.60855479,23.3039988 4.16313807,22.2932181 C4.02365389,21.9766877 3.96864772,21.6293924 4.00349179,21.2852512 L4.57593077,15.6314953 L0.789623603,11.3939819 C0.0536586991,10.5703137 0.124756335,9.30598115 0.948424617,8.57001625 C1.20635992,8.33954564 1.51965952,8.17991152 1.85772473,8.1067047 L7.41165943,6.90401989 L10.2717409,1.99356414 C10.8276703,1.03909242 12.0520923,0.716010061 13.0065641,1.27193949 C13.305461,1.4460312 13.554097,1.69466717 13.7281887,1.99356414 L16.5882702,6.90401989 L22.1422049,8.1067047 C23.2217531,8.34047702 23.9073899,9.40513365 23.6736175,10.4846818 C23.6004107,10.822747 23.4407766,11.1360466 23.210306,11.3939819 L19.4239988,15.6314953 L19.9964378,21.2852512 C20.1077058,22.3842021 19.3070306,23.3652785 18.2080797,23.4765465 C17.8639384,23.5113906 17.5166431,23.4563844 17.2001128,23.3169002 L11.9999648,21.0253718 L6.79981683,23.3169002 Z"/>
</svg>

<svg xmlns="http://www.w3.org/2000/svg" width="24" height="24" viewBox="0 0 24 24"><path fill="#758CA3" fill-rule="evenodd" d="m12 18.8398 6.0066 2.647-.6612-6.5307 4.3735-4.8947-6.4153-1.3892L12 3.0002l-3.3037 5.672-6.4153 1.3892 4.3735 4.8947-.6612 6.5306L12 18.8397zm-5.2002 4.4771c-1.0108.4454-2.1912-.0129-2.6367-1.0237a2 2 0 0 1-.1596-1.008l.5724-5.6537L.7896 11.394c-.736-.8237-.6648-2.088.1588-2.824a2 2 0 0 1 .9093-.4633l5.554-1.2027 2.86-4.9104c.556-.9545 1.7804-1.2776 2.7349-.7217a2 2 0 0 1 .7216.7217l2.86 4.9104 5.554 1.2027c1.0796.2338 1.7652 1.2984 1.5314 2.378a2 2 0 0 1-.4633.9093l-3.7863 4.2375.5724 5.6538c.1113 1.0989-.6894 2.08-1.7883 2.1912a2 2 0 0 1-1.008-.1596L12 21.0254l-5.2002 2.2915z"/></svg>
